X: 1
T: Polska efter Carl Emil Palmberg
S: efter Carl Emil Palmberg
R: Polska
Z: Håkan Lidén, 2009-02-05
O: Orsa, Dalarna
N: Finns på SMUS
M:3/4
L:1/8
K:D
[A2D2] d>A F>A | d>d ed/e/ fd | e>f ga/g/ fg/f/ | ef/e/ df/d/ A2 |
[A2D2] d>A F>A | d>d ed/e/ fd | e>f ga/g/ fg/f/ | ef/e/ d4 :|
|: a2 ba/g/ f2 | fe/f/ gf/e/ f2 | e>f ga/g/ fg/f/ | ef/e/ df/d/ A2 |
a2 ba/g/ f2 | fe/f/ gf/e/ f2 | e>f ga/g/ fg/f/ | ef/e/ d4 :|]

